src/2-landmarks/vote--voting-chamber.svg

<svg width="1300" height="1000" viewBox="0 0 1300 1000" fill="none" xmlns="http://www.w3.org/2000/svg"><path d="M242 900h7V96.227c0-8.284 6.716-15 15-15h456c8.284 0 15 6.716 15 15V900h7V94c0-11.046-8.954-20-20-20H262c-11.046 0-20 8.954-20 20v806ZM0 900h1300v100H0V900Z" fill="#000"/><path fill-rule="evenodd" clip-rule="evenodd" d="M319 538c-11.046 0-20 8.954-20 20s8.954 20 20 20h342c11.046 0 20-8.954 20-20s-8.954-20-20-20H319Zm.865 7c-7.18 0-13 5.82-13 13s5.82 13 13 13h340.27c7.18 0 13-5.82 13-13s-5.82-13-13-13h-340.27Z" fill="#000"/><path d="M319 578h7v322h-7V578Zm336 0h7v322h-7V578Z" fill="#000"/></svg>

<svg width="1300" height="1000" viewBox="0 0 1300 1000" fill="none" xmlns="http://www.w3.org/2000/svg">
<path d="M242 900H249V96.2275C249 87.9432 255.716 81.2275 264 81.2275H720C728.284 81.2275 735 87.9432 735 96.2275V900H742V94C742 82.9543 733.046 74 722 74H262C250.954 74 242 82.9543 242 94V900Z" fill="black"/>
<path d="M0 900H1300V1000H0V900Z" fill="black"/>
<path fill-rule="evenodd" clip-rule="evenodd" d="M319 538C307.954 538 299 546.954 299 558C299 569.046 307.954 578 319 578H661C672.046 578 681 569.046 681 558C681 546.954 672.046 538 661 538H319ZM319.865 545C312.685 545 306.865 550.82 306.865 558C306.865 565.18 312.685 571 319.865 571H660.135C667.315 571 673.135 565.18 673.135 558C673.135 550.82 667.315 545 660.135 545H319.865Z" fill="black"/>
<path d="M319 578H326V900H319V578Z" fill="black"/>
<path d="M655 578H662V900H655V578Z" fill="black"/>
</svg>
